X:1
T:Over the Tide
T:Over the Tide
T:William James Kirkpatrick
T:Francis A. Simkins, 1887
T:Public Domain Courtesy of the Cyber Hymnal™
C:William James Kirkpatrick
Z:Public Domain
Z:Courtesy of the Cyber Hymnal™
%%score ( 1 2 ) ( 3 4 )
L:1/8
Q:1/4=93
M:6/8
K:G
V:1 treble 
V:2 treble 
V:3 bass 
V:4 bass 
V:1
 [DB][DB][DB] [DB][DA][DG] | [DG]3 [B,D]2 z | [DA][DA][DA] [DA][DB][DA] | d6 | %4
w: 1.~Dark are the wa- ters be-|fore me—|Loud is the voice of the|gale;|
w: 2.~On- ward I move o’er the|wa- ters,|Lu- rid the light- ning’s fierce|glare,|
w: 3.~Per- il is in the dark|wa- ters—|Safe- ty be- yond the deep|wave;|
w: 4.~Ah, when the voy- age is|o- ver,|There, on that beau- ti- ful|shore,|
 [DB][DB][DB] [DB][CA][B,G] | [B,D]3 [DG]2 z | [DA][DA][DA] [^CB][CB][CA] | D3- D2 z || %8
w: Storm cloud and tem- pest are|o’er me,|Boat- man! O list to my|hail. *|
w: An- gry the surg- es be-|neath me—|Boat- man! lo, dan- ger is|there. *|
w: Fa- ther! O let me not|per- ish—|Thou who art might- y to|save. *|
w: Safe- ly be- yond the dark|wa- ters,|Joy shall be mine ev- er-|more. *|
"^Refrain" c3 [Dc][DB][DA] | [DB][DG][GB] [Gd]3 | [Fd][FA][FA] [FA][EG][EA] | [^DB]2 [EB] [DB]2 z | %12
w: ||||
w: Car- ry me o-|* ver the tide,|Dark are the wa- ters, And|deep and wide;|
w: ||||
w: ||||
 B3 [DB][CA][B,G] | [B,D][B,G][DB] !fermata![Gd]2 [GB] | [FA][FA][FA] [FA]!fermata![GB][DA] | %15
w: |||
w: Yon- der, just o-|* ver the sea, My|man- sion is wait- ing for|
w: |||
w: |||
 G3- [DG]2 z |] %16
w: |
w: me. *|
w: |
w: |
V:2
 x6 | x6 | x6 | (D3 C3) | x6 | x6 | x6 | D3- D2 x || FFF x3 | x6 | x6 | x6 | DDD x3 | x6 | x6 | %15
 DB,E x3 |] %16
V:3
 G,G,G, G,[G,C][G,B,] | [G,B,]3 G,2 z | [D,F,][D,F,][D,F,] [D,F,][D,G,][D,F,] | %3
w: Car- ry me, car- * *|* ry||
 ([B,,G,]3 [A,,F,]3) | [G,,G,][G,,G,][G,,G,] [G,,G,][G,,F,][G,,G,] | [G,,G,]3 [B,,G,]2 z | %6
w: |||
 [A,,F,][A,,F,][A,,F,] [A,,G,][A,,G,][A,,G,] | [D,F,]3- [D,F,]2 z || %8
w: ||
 [D,A,][D,A,][D,A,] [D,A,][D,G,][D,F,] | G,[G,B,][G,D] [G,B,]3 | %10
w: me, Yon- der, yes, yon- der|is * * *|
 [D,A,][D,D][D,C] [E,B,][E,B,][C,E,] | [B,,F,]2 [E,G,] [B,,F,]2 z | %12
w: ||
 [G,,G,][G,,G,][G,,G,] [G,,G,][G,,D,][G,,D,] | [G,,G,][G,,G,][G,,G,] !fermata![G,B,]2 [G,D] | %14
w: wait- ing for me. * *||
 [D,C][D,C][D,C] [D,C]!fermata![D,D][D,C] | B,G,C [G,,B,]2 z |] %16
w: ||
V:4
 G,G,G, G, x2 | x3 G,2 x | x6 | x6 | x6 | x6 | x6 | x6 || x6 | G, x5 | x6 | x6 | x6 | x6 | x6 | %15
 G,,3- x3 |] %16

